X:1
T:No.16. A Quatro: Datemi pace
T:No.16. A Quatro: Datemi pace
T:Giovanni Domenico da Nola
C:Giovanni Domenico da Nola
%%score [ 1 2 3 4 ]
L:1/8
Q:1/4=96
M:4/4
K:F
V:1 alto nm="Soprano" snm="S"
V:2 alto nm="Alto" snm="A"
V:3 perc nm="Tenor" snm="T"
K:none
V:4 bass3 nm="Bass" snm="B"
V:1
 B4 B2 B2 ||[M:2/2][K:treble] B4 B2 B2 | A4 B4 | B2 B2 B2 B2- | B2 A2 B2 F2 | G2 A2 B2 B2 | %6
w: Da- te- mi|1.Da- te- mi|pac' o|du- ri miei pen-|* sie- ri. Non|m'aff- lig- ge- te|
w: |2.Pas- sat' è'l|tem- po|ch'il vi- va- ce|* fuo- co. Ha-|ve pos- san- za|
w: |3.Go- do la|li- ber-|tà li- be- ro\_e|* sciol- to. E|con tal li- ber-|
w: |4.Dun- que va-|ni pen-|sier gi- te- ne|* vi- a. Ch'A-|mor in me non|
 A2 d2 d2 d2 |1[M:6/4] c4 d2 B2- B2 B2 ||[M:2/2] A4 A4 :|[M:6/4] c4 d2 B2- B2 B2 |[M:2/2] A4 A4 |: %11
w: tan- to st'alm' e'l|co- re. st'alm' * e'l|co- re.|co- re. st'alm' * e'l|co- re.|
w: contr' il mio de-|si- o. mio * de-|si- o.|si- o. mio * de-|si- o.|
w: tà vo- glio mo-|ri- re. vo- glio mo-|ri- re.|ri- re. vo- glio mo-|ri- re.|
w: hà for- za ne|lo- co. for- za ne|lo- co.|lo- co. for- za ne|lo- co.|
 B4 G2 G2 | A2 A2 A4 | G8 |1[M:3/2] A4 B8 |[M:2/2] A4 A4 :|2[M:3/2] A4 B8 || A4 A8 |] %18
w: poi c'ho vin-|to me stess'|e|vint' a-|mo- re.|vint' a-|mo- re.|
w: Per- che com'|e- ra d'al-|tri|ho- ra|son mio.|ho- ra|son mio.|
w: Ne don- na\_al|mon- do mau|vo-|glio ser-|vi- re.|glio ser-|vi- re.|
w: Et de suoi|lac- ci\_e stral|mi|cu- ro|po- co.|cu- ro|po- co.|
V:2
 G4 G2 G2 ||[M:2/2][K:treble] G4 G2 G2 | F4 G4 | G2 G2 G2 G2 | F4 F2 D2 | E2 F2 G2 G2 | %6
w: Da- te- mi|1.Da- te- mi|pac' o|du- ri miei pen-|sie- ri. Non|m'aff- lig- ge- te|
w: |2.Pas- sat' è'l|tem- po|ch'il vi- va- ce|fuo- co. Ha-|ve pos- san- za|
w: |3.Go- do la|li- ber-|tà li- be- ro\_e|sciol- to. E|con tal li- ber-|
w: |4.Dun- que va-|ni pen-|sier gi- te- ne|vi- a. Ch'A-|mor in me non|
 F2 B2 B2 B2- |1[M:6/4] B2 A2 B2 F2- F2 G2 ||[M:2/2] E4 ^F4 :|[M:6/4] B2 A2 B2 F2- F2 G2 | %10
w: tan- to st'alm' e'l|* co- re. st'alm' * e'l|co- re.|* co- re. st'alm' * e'l|
w: contr' il mio de-|si- * o. mio * de-|si- o.|* si- o. mio * de-|
w: tà vo- glio mo-|* ri- re. vo- glio mo-|ri- re.|* ri- re. vo- glio mo-|
w: hà for- za ne|* lo- co. for- za ne|lo- co.|* lo- co. for- za ne|
[M:2/2] E4 ^F4 |: G4 E4 | F4 F2 F2 | D4 E4 |1[M:3/2] F8 G4 |[M:2/2] E4 ^F4 :|2[M:3/2] F8 G4 || %17
w: co- re.|poi c'ho|vin- to me|stess' e|vint' a-|mo- re.|vint' a-|
w: si- o.|Per- che|e- ra d'al-|tri ho-|ra son|mio. *|ra son|
w: ri- re.|Ne don-|na\_al mon- do|mau vo-|glio ser-|vi- re.|glio ser-|
w: lo- co.|Et de|suoi lac- ci\_e|stral mi|cu- ro|po- co.|cu- ro|
 E4 ^F8 |] %18
w: re. re.|
w: mio. *|
w: vi- re.|
w: po- co.|
V:3
 G,4 G,2 G,2 ||[M:2/2][K:treble-8] G4 G2 G2 | d4 d4 | d2 d2 _e2 e2 | c4 B2 B2 | c2 d2 G2 G2 | %6
w: Da- te- mi|1.Da- te- mi|pac' o|du- ri miei pen-|sie- ri. Non|m'aff- lig- ge- te|
w: |2.Pas- sat' è'l|tem- po|ch'il vi- va- ce|fuo- co. Ha-|ve pos- san- za|
w: |3.Go- do la|li- ber-|tà li- be- ro\_e|sciol- to. E|con tal li- ber-|
w: |4.Dun- que va-|ni pen-|sier gi- te- ne|vi- a. Ch'A-|mor in me non|
 d2 B2 B2 B2 |1[M:6/4] f4 B2 d2- d2 d2- ||[M:2/2] d2 c2 d4 :|[M:6/4] f4 B2 d2- d2 d2- | %10
w: tan- to st'alm' e'l|co- re. st'alm' * e'l|* co- re.|co- re. st'alm' * e'l|
w: contr' il mio de-|si- o. mio * de-|si- * o.|si- o. mio * de-|
w: tà vo- glio mo-|ri- re. vo- glio mo-|* ri- re.|ri- re. vo- glio mo-|
w: hà for- za ne|lo- co. for- za ne|* lo- co.|lo- co. for- za ne|
[M:2/2] d2 c2 d4 |: d4 c4- | c4 d4 | d2 d2 c4 |1[M:3/2] c4 d4 d2 d2- |[M:2/2] d2 ^c2 d4 :|2 %16
w: * co- re.|poi c'ho|* vin-|to me stess'|e vint' a- mo-|* * re.|
w: * si- o.|Per- che|* e-|ra d'al- tri|ho- ra son mio.||
w: * ri- re.|Ne don-|* na\_al|mon- do mau|vo- glio ser- vi-|* * re.|
w: * lo- co.|Et de|* suoi|lac- ci\_e stral|mi cu- ro po-|* * co.|
[M:3/2] c4 d4 d2 d2- || d2 ^c2 d8 |] %18
w: e vint' a- mo-|* * re.|
w: d'al- tri ho- ra|* son mio.|
w: mau vo- glio ser-|vi- * re.|
w: stral mi cu- ro|po- * co.|
V:4
 z8 ||[M:2/2][K:bass] z8 | z4 G,2- G,2 | G,2 G,2 _E,2 E,2 | F,4 B,,4 | z8 | z8 |1 %7
w: ||o *|du- ri miei pen-|sie- ri.|||
w: ||tem- po|ch'il vi- va- ce|fuo- co.|||
w: ||li- ber-|tà li- be- ro\_e|sciol- to.|||
w: ||pen- *|sier gi- te- ne|vi- a.|||
[M:6/4] z4 z2 B,2- B,2 G,2 ||[M:2/2] A,4 D,4 :|[M:6/4] z4 z2 B,2- B,2 G,2 |[M:2/2] A,4 D,2 D,2 |: %11
w: st'alm' * e'l|co- re.|st'alm' * e'l|co- re. poi|
w: mio * de-|si- o.|mio * de-|si- o. Per-|
w: vo- glio mo-|ri- re.|vo- glio mo-|ri- re. Ne|
w: for- za ne|lo- co.|for- za ne|lo- co. Et|
 G,2 G,2 C,2 C,2 | F,4 D,2 D,2 | G,2 G,2 C,2 C,2 |1[M:3/2] F,4 B,4 G,2 G,2 |[M:2/2] A,4 D,2 D,2 :|2 %16
w: c'ho vin- to me|stess' e poi|c'ho vin- to me|stess' e vint' a-|mo- re. poi|
w: che com' e- ra|d'al- tri Per-|che com' e- ra|d'al- tri ho- ra|son mio. Per-|
w: don- na\_al mon- do|mau * Ne|don- na\_al mon- do|mau vo- glio ser-|vi- re. Ne|
w: de suoi lac- ci\_e|stral * Et|de suoi lac- ci\_e|stral mi cu- ro|po- co. Et|
[M:3/2] F,4 B,4 G,2 G,2 || A,4 D,8 |] %18
w: stess' e vint' a-|mo- re.|
w: d'al- tri ho- ra|son mio.|
w: mau vo- glio ser-|vi- re.|
w: stral mi cu- ro|po- co.|

